!!!OTL: Changge sheli hao chashan
!!!ARE: Asia, China,ÿHubei Macheng
!! I, 374
!!!SCT: C1723
!!!YEM: Copyright 1995, estate of Helmut Schaffrath.
**kern
*ICvox
*Ivox
!! Mixed meters:  2/4; 1/4
*M2/4
*k[]
*C:
{[2ee
=1
2ee]}
=2
{8ee
8ee
8ee
8ee
=3
4ee
8ee
8a
=4
8a
8a
4g
=5
8a
8a
4g}
=6
*M1/4
{8a
8ee
=7
*M2/4
8a
8cc
8a
8cc
=8
16gg
16ee
8ee
8gg
8r}
=9
{8ee
16ee
16gg
4ee
=10
16cc
16dd
8a
4a
=11
*M1/4
4cc
=12
*M2/4
8ee
8gg
4ee
=13
8ee
8ee
4dd}
=14
{8.ee
16gg
8ee
8ee
=15
4gg
4cc
=16
8a
8a
4g}
=17
{8ee
8gg
8ee
8gg
=18
8ee
8a
4g}
=19
*M1/4
{4cc
=20
*M2/4
4ee
4ee
=21
8a
8a
4g
=22
8a
8cc
8a
8cc
=23
16cc
16ee
16a
16a
8g
8r}
=24
*M1/4
{8.cc
16ee
=25
*M2/4
8.a
16cc
8.a
16cc
=26
16cc
16ee
8a
4a}
=27
{16ee
16gg
16ee
16gg
8ee
8ee
=28
16ee
16gg
8ee
8ee
8ee
=29
4.gg
8ee
=30
8.ee
16gg
8ee
8a
=31
8a
8a
4g}
==
!!!AGN: Wuge, Dengdiao, Huatiao
!!!ONB: ESAC (Essen Associative Code) Database: SENGANSU
!!!AMT: irregular
!!!AIN: vox
!!!EED: Helmut Schaffrath
!!!EEV: 1.0
*-
!!!ONB: Tied note syntax fixed by Craig Sapp, 2004/05/03/
